views/img/oney/tooltip-alt.svg

<?xml version="1.0" encoding="UTF-8"?>
<svg width="14px" height="14px" viewBox="0 0 14 14" version="1.1" xmlns="http://www.w3.org/2000/svg" xmlns:xlink="http://www.w3.org/1999/xlink">
    <!-- Generator: sketchtool 58 (101010) - https://sketch.com -->
    <title>11EBF459-0A2E-4401-8018-0A015AA70DF1</title>
    <desc>Created with sketchtool.</desc>
    <g id="1.7-Panier-AvecOney" stroke="none" stroke-width="1" fill="none" fill-rule="evenodd">
        <g id="1.7-Panier-AvecOney_popup" transform="translate(-890.000000, -235.000000)" fill="#b2b2b2" fill-rule="nonzero">
            <g id="Pay_oney" transform="translate(711.000000, 222.000000)">
                <g id="tooltip" transform="translate(179.000000, 13.000000)">
                    <circle id="Oval-6-Copy" stroke="#b2b2b2" stroke-width="1.5" fill-opacity="0.1" cx="7" cy="7" r="6.25"></circle>
                    <path d="M7.62,3.52 C8.3000034,3.52 8.8466646,3.6999982 9.26,4.06 C9.6733354,4.4200018 9.88,4.9299967 9.88,5.59 C9.88,6.25667 9.66833545,6.7666649 9.245,7.12 C8.82166455,7.4733351 8.2533369,7.6566666 7.54,7.67 L7.54,8.68 L6.21,8.68 L6.21,6.75 L6.78,6.75 C7.3200027,6.75 7.7399985,6.66833415 8.04,6.505 C8.3400015,6.34166585 8.49,6.0400022 8.49,5.6 C8.49,5.3066652 8.4066675,5.07833415 8.24,4.915 C8.0733325,4.75166585 7.8500014,4.67 7.57,4.67 C7.2633318,4.67 7.0200009,4.75833245 6.84,4.935 C6.6599991,5.11166755 6.57,5.3399986 6.57,5.62 L5.24,5.62 C5.2266666,5.219998 5.3133324,4.86166825 5.5,4.545 C5.6866676,4.22833175 5.96166485,3.97833425 6.325,3.795 C6.68833515,3.61166575 7.1199975,3.52 7.62,3.52 Z M7.65,9.53 L7.65,11 L6.13,11 L6.13,9.53 L7.65,9.53 Z" id="?"></path>
                </g>
            </g>
        </g>
    </g>
</svg>

<svg width="14" height="14" xmlns="http://www.w3.org/2000/svg">
    <g fill="#b2b2b2">
        <circle stroke="#b2b2b2" stroke-width="1.5" fill-opacity=".1" cx="7" cy="7" r="6.25"/>
        <path d="M7.62 3.52c.68 0 1.227.18 1.64.54.413.36.62.87.62 1.53 0 .667-.212 1.177-.635 1.53-.423.353-.992.537-1.705.55v1.01H6.21V6.75h.57c.54 0 .96-.082 1.26-.245.3-.163.45-.465.45-.905 0-.293-.083-.522-.25-.685-.167-.163-.39-.245-.67-.245-.307 0-.55.088-.73.265a.918.918 0 0 0-.27.685H5.24c-.013-.4.073-.758.26-1.075.187-.317.462-.567.825-.75.363-.183.795-.275 1.295-.275zm.03 6.01V11H6.13V9.53h1.52z"/>
    </g>
</svg>
